X: 56
T:Haste to the Wedding
M:6/8
L:1/8
R:Jig
K:D
|:AFA A2f|ede fdB|ABA AGF|GFG EFG|
AFAA2f|ede fdB|AFA faf|dedd3:|
|:afa agf|gfg bag|fga agf|gfg efg|
a3f3|ede fdB|AFA faf|ded d3:|
